blockchains/ethereum/assets/0xdAC17F958D2ee523a2206206994597C13D831ec7/logo.svg

<svg fill="none" height="250" viewBox="0 0 250 250" width="250" xmlns="http://www.w3.org/2000/svg"><path d="m249.776 124.956c0 68.694-55.684 124.378-124.378 124.378-68.6914 0-124.37798-55.684-124.37798-124.378 0-68.6926 55.68658-124.377875 124.37798-124.377875 68.694 0 124.378 55.685275 124.378 124.377875z" fill="#1ba27a"/><g fill="#fff"><path d="m183.772 63.2969h-117.7732v28.4328h44.6702v41.7913h28.433v-41.7913h44.67z"/><path d="m125.156 137.972c-36.9532 0-66.9122-5.848-66.9122-13.063 0-7.214 29.9577-13.064 66.9122-13.064 36.952 0 66.91 5.85 66.91 13.064 0 7.215-29.958 13.063-66.91 13.063zm75.13-10.885c0-9.304-33.637-16.845-75.13-16.845s-75.1323 7.541-75.1323 16.845c0 8.193 26.0833 15.018 60.6463 16.531v59.992h28.431v-59.969c34.829-1.465 61.185-8.319 61.185-16.554z"/></g></svg>

<svg width="250" height="250" viewBox="0 0 250 250" fill="none" xmlns="http://www.w3.org/2000/svg">
<path d="M249.776 124.956C249.776 193.65 194.092 249.334 125.398 249.334C56.7066 249.334 1.02002 193.65 1.02002 124.956C1.02002 56.2634 56.7066 0.578125 125.398 0.578125C194.092 0.578125 249.776 56.2634 249.776 124.956Z" fill="#1BA27A"/>
<path d="M183.772 63.2969H65.9988V91.7297H110.669V133.521H139.102V91.7297H183.772V63.2969Z" fill="white"/>
<path d="M125.156 137.972C88.2028 137.972 58.2438 132.124 58.2438 124.909C58.2438 117.695 88.2015 111.845 125.156 111.845C162.108 111.845 192.066 117.695 192.066 124.909C192.066 132.124 162.108 137.972 125.156 137.972ZM200.286 127.087C200.286 117.783 166.649 110.242 125.156 110.242C83.663 110.242 50.0237 117.783 50.0237 127.087C50.0237 135.28 76.107 142.105 110.67 143.618V203.61H139.101V143.641C173.93 142.176 200.286 135.322 200.286 127.087Z" fill="white"/>
</svg>
